X:101
T:Paddy in London (aka Mug of Brown Ale)
C:Trad, Ir. (after CW)  
M:6/8
L:1/8
%% Q:3/8=112
K:G 
 g2f |: "Am"eAA fAA | gfg age | "G"dBA G2 A | B2 A Bcd |
 "Am"eAA fAA | gfg age | "G"dBB gBB |1 "Em"ABA "Am"A2 f :|2 "Em"ABA "Am"A2 e |
 |: "Am"efg a2b | aba age | "G"def g2a | gag ged |
 "Am"efg a2b | aba age | "G"dBB "Em"gBB |1 ABA "Am"A2 e :|2 ABA "Am"A2 z |
%%text
%%text
